X: 23
T: Rolling In The Ryegrass
Z: Gabby McKinley
S: https://thesession.org/tunes/87#setting49799
R: reel
M: 4/4
L: 1/8
K: Dmaj
"D"A2 AF DFAF|"G"G2 BG dGBG|"D"A2 AF DFAF|"G"GBAF "A"E2 DF|
"D"~A3 F DFAF|"G"G2 BG dGBG|"D"A2 AF DFAF|"G"GBAF "A"E2 "D"D2||
ABde ~f3 d|"G"~g3 e "A"fedB|"D"ABde f2 df|"A"afdf "G"e2 dB|
"D"ABde fe df|"G"g2 eg "A"fedB|"D"ABde f2 df|"A"afdf "G"e2 "D"d2||

